<?xml version="1.0" encoding="UTF-8"?>
<map version="1.10" tiledversion="1.12.2" orientation="orthogonal" renderorder="right-down" width="38" height="28" tilewidth="32" tileheight="32" infinite="0" nextlayerid="8" nextobjectid="135">
 <imagelayer id="3" name="Capa de Imagen 1" offsetx="3.67979" offsety="11.4717">
  <image source="laberinto.png" width="1210" height="880"/>
 </imagelayer>
 <objectgroup id="5" name="Paredes" offsetx="3.0303" offsety="-139.394">
  <object id="14" x="287.439" y="166.991" width="864.696" height="29.2193"/>
  <object id="15" x="11.0393" y="204.327" width="257.893" height="335.489"/>
  <object id="16" x="336.464" y="272.616" width="156.922" height="51.4056"/>
  <object id="37" x="650.853" y="272.291" width="56.8167" height="132.032"/>
  <object id="38" x="713.081" y="344.693" width="129.434" height="46.9687"/>
  <object id="41" x="788.292" y="229.652" width="51.4056" height="116.339"/>
  <object id="48" x="905.93" y="279.326" width="32.2496" height="192.095"/>
  <object id="49" x="950.626" y="288.092" width="151.511" height="35.6046"/>
  <object id="89" x="348.485" y="327.273" width="30.303" height="351.515"/>
  <object id="90" x="681.818" y="660.606" width="30.303" height="227.273"/>
  <object id="91" x="727.273" y="763.636" width="203.03" height="30.303"/>
  <object id="92" x="903.03" y="548.485" width="30.303" height="187.879"/>
  <object id="93" x="933.333" y="563.636" width="166.667" height="51.5152"/>
  <object id="94" x="1039.39" y="615.152" width="60.6061" height="39.3939"/>
  <object id="95" x="1054.55" y="348.485" width="45.4545" height="148.485"/>
  <object id="96" x="1015.15" y="442.424" width="33.3333" height="57.5758"/>
  <object id="97" x="751.515" y="469.697" width="215.152" height="30.303"/>
  <object id="98" x="793.939" y="500" width="42.4242" height="187.879"/>
  <object id="99" x="645.455" y="460.606" width="48.4848" height="142.424"/>
  <object id="100" x="700" y="563.636" width="93.9394" height="39.3939"/>
  <object id="101" x="763.636" y="612.121" width="36.3636" height="75.7576"/>
  <object id="102" x="439.394" y="330.303" width="54.5455" height="78.7879"/>
  <object id="103" x="496.97" y="363.636" width="96.9697" height="45.4545"/>
  <object id="104" x="548.485" y="281.818" width="45.4545" height="75.7576"/>
  <object id="106" x="587.879" y="281.818" width="57.5758" height="30.303"/>
  <object id="107" x="542.424" y="418.182" width="54.5455" height="78.7879"/>
  <object id="108" x="593.939" y="463.636" width="48.4848" height="27.2727"/>
  <object id="109" x="384.848" y="460.606" width="112.121" height="42.4242"/>
  <object id="110" x="448.485" y="503.03" width="51.5152" height="75.7576"/>
  <object id="111" x="503.03" y="542.424" width="103.03" height="42.4242"/>
  <object id="112" x="548.485" y="584.849" width="54.5455" height="115.152"/>
  <object id="113" x="603.03" y="651.515" width="112.121" height="54.5455"/>
  <object id="114" x="554.545" y="751.515" width="51.5152" height="106.061"/>
  <object id="115" x="615.152" y="824.242" width="54.5455" height="54.5455"/>
  <object id="116" x="436.364" y="830.303" width="75.7576" height="39.3939"/>
  <object id="117" x="515.152" y="824.242" width="33.3333" height="45.4545"/>
  <object id="118" x="348.485" y="730.303" width="27.2727" height="142.424"/>
  <object id="119" x="396.97" y="736.364" width="106.061" height="21.2121"/>
  <object id="120" x="387.879" y="636.364" width="112.121" height="36.3636"/>
  <object id="121" x="439.394" y="639.394" width="54.5455" height="112.121"/>
  <object id="122" x="778.788" y="854.546" width="233.333" height="36.3636"/>
  <object id="123" x="987.879" y="721.212" width="163.636" height="63.6364"/>
  <object id="124" x="993.939" y="793.939" width="142.424" height="30.303"/>
  <object id="125" x="990.909" y="833.333" width="33.3333" height="15.1515"/>
  <object id="126" x="1100" y="830.303" width="48.4848" height="75.7576"/>
  <object id="127" x="36.3636" y="645.455" width="251.515" height="378.788"/>
  <object id="128" x="287.879" y="960.606" width="918.182" height="60.6061"/>
  <object id="129" x="1160.61" y="163.636" width="48.4848" height="363.636"/>
  <object id="130" x="1154.55" y="642.424" width="54.5455" height="290.909"/>
  <object id="132" x="984.848" y="672.727" width="9.09091" height="39.3939"/>
 </objectgroup>
 <layer id="1" name="Capa de patrones 1" width="38" height="28" offsetx="-3.0303" offsety="-3.0303">
  <data encoding="csv">
0,0,0,0,0,0,0,0,0,0,0,0,0,0,0,0,0,0,0,0,0,0,0,0,0,0,0,0,0,0,0,0,0,0,0,0,0,0,
0,0,0,0,0,0,0,0,0,0,0,0,0,0,0,0,0,0,0,0,0,0,0,0,0,0,0,0,0,0,0,0,0,0,0,0,0,0,
0,0,0,0,0,0,0,0,0,0,0,0,0,0,0,0,0,0,0,0,0,0,0,0,0,0,0,0,0,0,0,0,0,0,0,0,0,0,
0,0,0,0,0,0,0,0,0,0,0,0,0,0,0,0,0,0,0,0,0,0,0,0,0,0,0,0,0,0,0,0,0,0,0,0,0,0,
0,0,0,0,0,0,0,0,0,0,0,0,0,0,0,0,0,0,0,0,0,0,0,0,0,0,0,0,0,0,0,0,0,0,0,0,0,0,
0,0,0,0,0,0,0,0,0,0,0,0,0,0,0,0,0,0,0,0,0,0,0,0,0,0,0,0,0,0,0,0,0,0,0,0,0,0,
0,0,0,0,0,0,0,0,0,0,0,0,0,0,0,0,0,0,0,0,0,0,0,0,0,0,0,0,0,0,0,0,0,0,0,0,0,0,
0,0,0,0,0,0,0,0,0,0,0,0,0,0,0,0,0,0,0,0,0,0,0,0,0,0,0,0,0,0,0,0,0,0,0,0,0,0,
0,0,0,0,0,0,0,0,0,0,0,0,0,0,0,0,0,0,0,0,0,0,0,0,0,0,0,0,0,0,0,0,0,0,0,0,0,0,
0,0,0,0,0,0,0,0,0,0,0,0,0,0,0,0,0,0,0,0,0,0,0,0,0,0,0,0,0,0,0,0,0,0,0,0,0,0,
0,0,0,0,0,0,0,0,0,0,0,0,0,0,0,0,0,0,0,0,0,0,0,0,0,0,0,0,0,0,0,0,0,0,0,0,0,0,
0,0,0,0,0,0,0,0,0,0,0,0,0,0,0,0,0,0,0,0,0,0,0,0,0,0,0,0,0,0,0,0,0,0,0,0,0,0,
0,0,0,0,0,0,0,0,0,0,0,0,0,0,0,0,0,0,0,0,0,0,0,0,0,0,0,0,0,0,0,0,0,0,0,0,0,0,
0,0,0,0,0,0,0,0,0,0,0,0,0,0,0,0,0,0,0,0,0,0,0,0,0,0,0,0,0,0,0,0,0,0,0,0,0,0,
0,0,0,0,0,0,0,0,0,0,0,0,0,0,0,0,0,0,0,0,0,0,0,0,0,0,0,0,0,0,0,0,0,0,0,0,0,0,
0,0,0,0,0,0,0,0,0,0,0,0,0,0,0,0,0,0,0,0,0,0,0,0,0,0,0,0,0,0,0,0,0,0,0,0,0,0,
0,0,0,0,0,0,0,0,0,0,0,0,0,0,0,0,0,0,0,0,0,0,0,0,0,0,0,0,0,0,0,0,0,0,0,0,0,0,
0,0,0,0,0,0,0,0,0,0,0,0,0,0,0,0,0,0,0,0,0,0,0,0,0,0,0,0,0,0,0,0,0,0,0,0,0,0,
0,0,0,0,0,0,0,0,0,0,0,0,0,0,0,0,0,0,0,0,0,0,0,0,0,0,0,0,0,0,0,0,0,0,0,0,0,0,
0,0,0,0,0,0,0,0,0,0,0,0,0,0,0,0,0,0,0,0,0,0,0,0,0,0,0,0,0,0,0,0,0,0,0,0,0,0,
0,0,0,0,0,0,0,0,0,0,0,0,0,0,0,0,0,0,0,0,0,0,0,0,0,0,0,0,0,0,0,0,0,0,0,0,0,0,
0,0,0,0,0,0,0,0,0,0,0,0,0,0,0,0,0,0,0,0,0,0,0,0,0,0,0,0,0,0,0,0,0,0,0,0,0,0,
0,0,0,0,0,0,0,0,0,0,0,0,0,0,0,0,0,0,0,0,0,0,0,0,0,0,0,0,0,0,0,0,0,0,0,0,0,0,
0,0,0,0,0,0,0,0,0,0,0,0,0,0,0,0,0,0,0,0,0,0,0,0,0,0,0,0,0,0,0,0,0,0,0,0,0,0,
0,0,0,0,0,0,0,0,0,0,0,0,0,0,0,0,0,0,0,0,0,0,0,0,0,0,0,0,0,0,0,0,0,0,0,0,0,0,
0,0,0,0,0,0,0,0,0,0,0,0,0,0,0,0,0,0,0,0,0,0,0,0,0,0,0,0,0,0,0,0,0,0,0,0,0,0,
0,0,0,0,0,0,0,0,0,0,0,0,0,0,0,0,0,0,0,0,0,0,0,0,0,0,0,0,0,0,0,0,0,0,0,0,0,0,
0,0,0,0,0,0,0,0,0,0,0,0,0,0,0,0,0,0,0,0,0,0,0,0,0,0,0,0,0,0,0,0,0,0,0,0,0,0
</data>
 </layer>
</map>
